tools/download-figma-icons/icons/outlined-medium/smartphone-with-touch.svg

<svg width="24" height="24" viewBox="0 0 24 24" fill="none" xmlns="http://www.w3.org/2000/svg">
<path fill-rule="evenodd" clip-rule="evenodd" d="M18.9898 18.5791C17.9953 19.5413 16.7608 19.872 15.2151 19.5915C14.5851 19.476 13.9341 19.2316 13.2733 18.8611L7.02141 15.4231C6.74391 15.2963 6.62241 14.9671 6.74766 14.6911C6.80316 14.5703 6.89016 14.4804 7.00641 14.4234C7.08516 14.3844 7.16916 14.3649 7.25315 14.3649C7.33115 14.3649 7.4084 14.3814 7.4804 14.4144L9.54213 15.3698C9.83163 15.5041 10.1729 15.4403 10.3949 15.2131C10.6161 14.9843 10.6709 14.6416 10.5291 14.3566L6.94341 7.11317C6.79791 6.81993 6.88266 6.46668 7.13091 6.32418C7.30865 6.22218 7.47965 6.24543 7.58465 6.28068C7.72565 6.32793 7.8389 6.42693 7.90415 6.55818L10.4984 11.7969C10.6814 12.1674 11.1306 12.3189 11.5034 12.1366C11.8739 11.9529 12.0261 11.5029 11.8424 11.1316C11.7074 10.8579 11.8191 10.5256 12.0936 10.3891C12.2616 10.3066 12.4169 10.3284 12.5159 10.3614C12.6561 10.4086 12.7693 10.5076 12.8346 10.6404C13.0183 11.0109 13.4683 11.1624 13.8396 10.9794C14.2108 10.7956 14.3631 10.3456 14.1793 9.9744C14.0436 9.70065 14.1561 9.3684 14.4298 9.2319C14.5986 9.14865 14.7531 9.1719 14.8521 9.2049C14.9931 9.25215 15.1071 9.35115 15.1723 9.48315C15.3553 9.85365 15.8053 10.0051 16.1773 9.82215C16.4413 9.6909 16.5943 9.4254 16.5943 9.1494C16.5943 9.0369 16.5688 8.92366 16.5163 8.81641C16.4503 8.68441 16.4398 8.53366 16.4871 8.39416C16.5343 8.25391 16.6333 8.14141 16.7661 8.07541C16.9356 7.99292 17.0901 8.01467 17.1891 8.04766H17.1898C17.3301 8.09491 17.4433 8.19391 17.5101 8.32966C18.3523 10.0074 19.727 12.7629 19.832 13.0119C20.057 13.5879 21.0755 16.5593 18.9898 18.5791ZM13.3281 22.5H4.8442C4.24046 22.5 3.74996 22.0088 3.74996 21.4058V2.59447C3.74996 1.99072 4.24046 1.50023 4.8442 1.50023H5.3437C5.3497 2.10472 5.84169 2.59447 6.44843 2.59447H11.6129C12.2196 2.59447 12.7116 2.10472 12.7184 1.50023H13.3281C13.9311 1.50023 14.4224 1.99072 14.4224 2.59447V7.69142C14.1959 7.71992 13.9746 7.78367 13.7639 7.88791C13.3214 8.10766 12.9921 8.46691 12.8039 8.8854C12.3404 8.77891 11.8574 8.83215 11.4276 9.04515C11.2574 9.12915 11.1021 9.2349 10.9641 9.3579L9.24816 5.89218C9.00516 5.40244 8.58441 5.03494 8.05867 4.85719C7.49017 4.67195 6.89618 4.72895 6.38619 5.02219C5.44569 5.56069 5.09995 6.77118 5.59869 7.77842L8.24017 13.1139L8.10967 13.0531C7.54417 12.7929 6.89993 12.8019 6.34194 13.0786C5.91744 13.2879 5.58669 13.6276 5.38495 14.0649C4.91395 15.0953 5.36845 16.3163 6.34794 16.7618L12.5451 20.172C13.1699 20.523 13.7991 20.7803 14.4224 20.9453V21.4058C14.4224 22.0088 13.9311 22.5 13.3281 22.5ZM21.2308 12.4696C21.1265 12.1996 19.5321 9.0144 18.8533 7.66067C18.6103 7.16942 18.1903 6.80268 17.6691 6.62643C17.1501 6.45018 16.5928 6.48768 16.1016 6.73068C16.0378 6.76218 15.9816 6.80268 15.9223 6.83943V2.59447C15.9223 1.16348 14.7584 0.000244138 13.3281 0.000244138H4.8442C3.41397 0.000244138 2.24998 1.16348 2.24998 2.59447V21.4058C2.24998 22.836 3.41397 24 4.8442 24H13.3281C14.7584 24 15.9223 22.836 15.9223 21.4058V21.1733C16.0258 21.1778 16.1323 21.1883 16.2343 21.1883C17.7081 21.1883 18.9816 20.6753 20.0338 19.6568C22.802 16.9756 21.515 13.1956 21.2308 12.4696Z" fill="black"/>
</svg>

<svg width="24" height="24" viewBox="0 0 24 24" fill="none" xmlns="http://www.w3.org/2000/svg"><path fill-rule="evenodd" clip-rule="evenodd" d="M18.99 18.58c-.995.961-2.23 1.292-3.775 1.012-.63-.116-1.28-.36-1.942-.73l-6.252-3.439a.555.555 0 0 1 .46-1.009l2.061.956a.75.75 0 0 0 .987-1.013L6.943 7.113c-.145-.293-.06-.646.188-.789a.549.549 0 0 1 .454-.043.55.55 0 0 1 .32.277l2.593 5.239a.75.75 0 0 0 1.344-.665.555.555 0 0 1 .674-.77.55.55 0 0 1 .319.278.751.751 0 0 0 1.344-.666.555.555 0 0 1 .25-.742.547.547 0 0 1 .423-.027.549.549 0 0 1 .32.278.75.75 0 0 0 1.344-.667.55.55 0 0 1 .673-.769.55.55 0 0 1 .321.283c.842 1.677 2.217 4.433 2.322 4.682.225.576 1.244 3.547-.842 5.567Zm-5.662 3.92H4.844a1.095 1.095 0 0 1-1.094-1.094V2.594c0-.603.49-1.094 1.094-1.094h.5a1.105 1.105 0 0 0 1.104 1.094h5.165c.607 0 1.099-.49 1.105-1.094h.61c.603 0 1.094.49 1.094 1.094v5.097a2.05 2.05 0 0 0-1.618 1.194 2.052 2.052 0 0 0-1.84.473L9.248 5.892a2.047 2.047 0 0 0-1.19-1.035 2.044 2.044 0 0 0-1.672.165c-.94.539-1.286 1.75-.787 2.756l2.641 5.336-.13-.06a2.041 2.041 0 0 0-1.768.025 2.034 2.034 0 0 0-.957.986c-.471 1.03-.017 2.251.963 2.697l6.197 3.41a8.043 8.043 0 0 0 1.877.773v.46c0 .604-.49 1.095-1.094 1.095Zm7.903-10.03c-.105-.27-1.699-3.456-2.378-4.81a2.04 2.04 0 0 0-1.184-1.034 2.037 2.037 0 0 0-1.567.105c-.064.031-.12.072-.18.108V2.594A2.597 2.597 0 0 0 13.328 0H4.844A2.597 2.597 0 0 0 2.25 2.594v18.812A2.597 2.597 0 0 0 4.844 24h8.484a2.597 2.597 0 0 0 2.594-2.594v-.233c.104.005.21.015.312.015 1.474 0 2.748-.513 3.8-1.531 2.768-2.681 1.481-6.461 1.197-7.187Z" fill="currentColor"/></svg>
